static/images/banner/kubernetes.svg

<?xml version="1.0" encoding="UTF-8"?>
<svg width="123px" height="119px" viewBox="0 0 123 119" version="1.1" xmlns="http://www.w3.org/2000/svg" xmlns:xlink="http://www.w3.org/1999/xlink">
    <title>kubernetes</title>
    <g id="Page-1" stroke="none" stroke-width="1" fill="none" fill-rule="evenodd">
        <g id="kubernetes" transform="translate(0.003693, 0.000000)" fill-rule="nonzero">
            <path d="M112.126307,26.42 C111.426307,24.17 109.736307,22.34 107.626307,21.22 L64.7763072,0.7 C63.6463072,0.14 62.3863072,0 61.2563072,0 C60.1263072,0 58.8663072,0 57.7463072,0.28 L14.8863072,20.94 C12.7763072,21.92 11.2363072,23.75 10.6663072,26.14 L0.136307227,72.37 C-0.283692773,74.76 0.276307227,77.15 1.68630723,79.12 L31.3363072,115.79 C33.0263072,117.48 35.4163072,118.6 37.7963072,118.74 L85.0063072,118.74 C87.5363072,119.02 89.9263072,117.9 91.4663072,115.79 L121.116307,79.12 C122.526307,77.15 123.086307,74.76 122.806307,72.37 L112.126307,26.42 L112.126307,26.42 L112.126307,26.42 Z" id="Path" fill="#0A55A7"></path>
            <path d="M105.586307,69.45 L105.586307,69.45 C105.446307,69.45 105.306307,69.45 105.306307,69.31 C105.306307,69.17 105.026307,69.17 104.746307,69.17 C104.186307,69.03 103.626307,69.03 103.056307,69.03 C102.776307,69.03 102.496307,69.03 102.216307,68.89 L102.076307,68.89 C100.526307,68.75 98.8463072,68.47 97.2963072,68.05 C96.8763072,67.91 96.4563072,67.49 96.3163072,67.07 C96.4563072,67.07 96.3163072,67.07 96.3163072,67.07 L96.3163072,67.07 L95.1963072,66.79 C95.7563072,62.71 95.4763072,58.5 94.6363072,54.42 C93.6563072,50.34 91.9663072,46.41 89.7163072,42.9 L90.5563072,42.06 L90.5563072,42.06 L90.5563072,41.92 C90.5563072,41.5 90.6963072,40.94 90.9763072,40.66 C92.2363072,39.54 93.5063072,38.69 94.9063072,37.85 L94.9063072,37.85 C95.1863072,37.71 95.4663072,37.57 95.7463072,37.43 C96.3063072,37.15 96.7263072,36.87 97.2963072,36.59 C97.4363072,36.45 97.5763072,36.45 97.7163072,36.31 C97.8563072,36.17 97.7163072,36.17 97.7163072,36.03 L97.7163072,36.03 C98.9763072,35.05 99.2663072,33.36 98.2763072,32.1 C97.8563072,31.54 97.0163072,31.12 96.3063072,31.12 C95.6063072,31.12 94.8963072,31.4 94.3363072,31.82 L94.3363072,31.82 L94.1963072,31.96 C94.0563072,32.1 93.9163072,32.24 93.7763072,32.24 C93.3563072,32.66 92.9363072,33.08 92.6563072,33.5 C92.5163072,33.78 92.2363072,33.92 92.0963072,34.06 L92.0963072,34.06 C91.1163072,35.18 89.8463072,36.31 88.5863072,37.15 C88.3063072,37.29 88.0263072,37.43 87.7463072,37.43 C87.6063072,37.43 87.3263072,37.43 87.1863072,37.29 L87.0463072,37.29 L85.9263072,37.99 C84.8063072,36.87 83.5363072,35.74 82.4163072,34.62 C77.2163072,30.54 70.7563072,28.02 64.1463072,27.31 L64.0063072,26.19 L64.0063072,26.19 L64.0063072,26.33 C63.5863072,26.05 63.4463072,25.63 63.3063072,25.21 C63.3063072,23.66 63.3063072,22.12 63.5863072,20.43 L63.5863072,20.29 C63.5863072,20.01 63.7263072,19.73 63.7263072,19.45 C63.8663072,18.89 63.8663072,18.33 64.0063072,17.76 L64.0063072,16.9 L64.0063072,16.9 C64.1463072,15.49 63.0263072,14.09 61.6163072,13.95 C60.7763072,13.81 59.9263072,14.23 59.2263072,14.93 C58.6663072,15.49 58.3863072,16.19 58.3863072,16.9 L58.3863072,16.9 L58.3863072,17.6 C58.3863072,18.16 58.5263072,18.72 58.6663072,19.29 C58.8063072,19.57 58.8063072,19.85 58.8063072,20.13 L58.8063072,20.27 C59.0863072,21.82 59.0863072,23.36 59.0863072,25.05 C58.9463072,25.47 58.8063072,25.89 58.3863072,26.17 L58.3863072,26.45 L58.3863072,26.45 L58.2463072,27.57 C56.6963072,27.71 55.1563072,27.99 53.4663072,28.27 C46.8663072,29.68 40.8163072,33.19 36.1863072,38.11 L35.3463072,37.55 L35.2063072,37.55 C35.0663072,37.55 34.9263072,37.69 34.6463072,37.69 C34.3663072,37.69 34.0863072,37.55 33.8063072,37.41 C32.5463072,36.43 31.2763072,35.3 30.2963072,34.18 L30.2963072,34.18 C30.1563072,33.9 29.8763072,33.76 29.7363072,33.62 C29.3163072,33.2 29.0363072,32.78 28.6163072,32.36 C28.4763072,32.22 28.3363072,32.22 28.1963072,32.08 C28.0563072,31.94 28.0563072,31.94 28.0563072,31.94 L28.0563072,31.94 C27.4963072,31.52 26.7963072,31.24 26.0863072,31.24 C25.2463072,31.24 24.5363072,31.52 24.1163072,32.22 C23.2763072,33.48 23.5563072,35.17 24.6763072,36.15 L24.6763072,36.15 C24.8163072,36.15 24.8163072,36.29 24.8163072,36.29 C24.8163072,36.29 25.0963072,36.57 25.2363072,36.57 C25.6563072,36.85 26.2163072,37.13 26.7863072,37.41 C27.0663072,37.55 27.3463072,37.69 27.6263072,37.83 L27.6263072,37.83 C29.0363072,38.67 30.4363072,39.52 31.5563072,40.64 C31.8363072,40.92 32.1163072,41.48 31.9763072,41.9 L31.9763072,41.76 L31.9763072,41.76 L32.8163072,42.6 C32.6763072,42.88 32.5363072,43.02 32.3963072,43.3 C28.0363072,50.19 26.2163072,58.34 27.4763072,66.35 L26.3563072,66.63 L26.3563072,66.63 C26.3563072,66.77 26.2163072,66.77 26.2163072,66.77 C26.0763072,67.19 25.6563072,67.47 25.2363072,67.75 C23.6863072,68.17 22.1463072,68.45 20.4563072,68.59 L20.4563072,68.59 C20.1763072,68.59 19.8963072,68.59 19.6163072,68.73 C19.0563072,68.73 18.4963072,68.87 17.9263072,68.87 C17.7863072,68.87 17.6463072,69.01 17.3663072,69.01 C17.2263072,69.01 17.2263072,69.01 17.0863072,69.15 L17.0863072,69.15 C15.5363072,69.43 14.5563072,70.84 14.8363072,72.38 L14.8363072,72.38 C15.1163072,73.64 16.3863072,74.49 17.6463072,74.35 C17.9263072,74.35 18.0663072,74.35 18.3463072,74.21 L18.3463072,74.21 C18.4863072,74.21 18.4863072,74.21 18.4863072,74.07 C18.4863072,73.93 18.9063072,74.07 19.0463072,74.07 C19.6063072,73.93 20.1663072,73.65 20.5963072,73.51 C20.8763072,73.37 21.1563072,73.23 21.4363072,73.23 L21.5763072,73.23 C23.1263072,72.67 24.5263072,72.25 26.2163072,71.97 L26.3563072,71.97 C26.7763072,71.97 27.1963072,72.11 27.4763072,72.39 C27.6163072,72.39 27.6163072,72.53 27.6163072,72.53 L27.6163072,72.53 L28.8763072,72.39 C30.9863072,78.85 34.9163072,84.62 40.3963072,88.83 C41.6563072,89.81 42.7863072,90.66 44.1863072,91.36 L43.4863072,92.34 L43.4863072,92.34 C43.4863072,92.48 43.6263072,92.48 43.6263072,92.48 C43.9063072,92.9 43.9063072,93.46 43.7663072,93.89 C43.2063072,95.3 42.3563072,96.7 41.5163072,97.97 L41.5163072,98.11 C41.3763072,98.39 41.2363072,98.53 40.9563072,98.81 C40.6763072,99.09 40.3963072,99.65 39.9763072,100.22 C39.8363072,100.36 39.8363072,100.5 39.6963072,100.64 C39.6963072,100.64 39.6963072,100.78 39.5563072,100.78 L39.5563072,100.78 C38.8563072,102.19 39.4163072,103.87 40.6763072,104.57 C40.9563072,104.71 41.3763072,104.85 41.6563072,104.85 C42.7763072,104.85 43.7663072,104.15 44.3263072,103.16 L44.3263072,103.16 C44.3263072,103.16 44.3263072,103.02 44.4663072,103.02 C44.4663072,102.88 44.6063072,102.74 44.7463072,102.6 C44.8863072,102.04 45.1663072,101.62 45.3063072,101.05 L45.5863072,100.21 L45.5863072,100.21 C46.0063072,98.66 46.7063072,97.26 47.4163072,95.85 C47.6963072,95.43 48.1163072,95.15 48.5363072,95.01 C48.6763072,95.01 48.6763072,95.01 48.6763072,94.87 L48.6763072,94.87 L49.2363072,93.75 C53.1663072,95.3 57.2463072,96 61.4563072,96 C63.9863072,96 66.5163072,95.72 69.0463072,95.02 C70.5963072,94.74 72.1363072,94.18 73.5463072,93.76 L74.1063072,94.74 L74.1063072,94.74 C74.2463072,94.74 74.2463072,94.74 74.2463072,94.88 C74.6663072,95.02 75.0863072,95.3 75.3663072,95.72 C76.0663072,97.13 76.7763072,98.53 77.1963072,100.08 L77.1963072,100.22 L77.4763072,101.06 C77.6163072,101.62 77.7563072,102.18 78.0363072,102.61 C78.1763072,102.75 78.1763072,102.89 78.3163072,103.03 C78.3163072,103.03 78.3163072,103.17 78.4563072,103.17 L78.4563072,103.17 C79.0163072,104.15 80.0063072,104.86 81.1263072,104.86 C81.5463072,104.86 81.8263072,104.72 82.2463072,104.58 C82.8063072,104.3 83.3663072,103.74 83.5063072,103.03 C83.6463072,102.33 83.6463072,101.62 83.3663072,100.92 L83.3663072,100.92 C83.3663072,100.78 83.2263072,100.78 83.2263072,100.78 C83.2263072,100.64 83.0863072,100.5 82.9463072,100.36 C82.6663072,99.8 82.3863072,99.38 81.9663072,98.95 C81.8263072,98.67 81.6863072,98.53 81.4063072,98.25 L81.4063072,97.97 C80.4263072,96.71 79.7163072,95.3 79.1563072,93.89 C79.0163072,93.47 79.0163072,92.91 79.2963072,92.48 C79.2963072,92.34 79.4363072,92.34 79.4363072,92.34 L79.4363072,92.34 L79.0163072,91.22 C86.1863072,86.86 91.6663072,80.12 94.1963072,72.11 L95.3163072,72.25 L95.3163072,72.25 C95.4563072,72.25 95.4563072,72.11 95.4563072,72.11 C95.7363072,71.83 96.1563072,71.69 96.5763072,71.69 L96.7163072,71.69 C98.2663072,71.97 99.8063072,72.39 101.216307,72.95 L101.356307,72.95 C101.636307,73.09 101.916307,73.23 102.196307,73.23 C102.756307,73.51 103.176307,73.79 103.746307,73.93 C103.886307,73.93 104.026307,74.07 104.306307,74.07 C104.446307,74.07 104.446307,74.07 104.586307,74.21 L104.586307,74.21 C104.866307,74.35 105.006307,74.35 105.286307,74.35 C106.546307,74.35 107.676307,73.51 108.096307,72.38 C107.976307,70.86 106.846307,69.73 105.586307,69.45 L105.586307,69.45 L105.586307,69.45 Z M64.9763072,65.09 L61.1863072,66.92 L57.3963072,65.09 L56.4163072,61.01 L59.0863072,57.64 L63.3063072,57.64 L65.9763072,61.01 L64.9763072,65.09 L64.9763072,65.09 Z M87.8763072,55.96 C88.5763072,58.91 88.7163072,61.86 88.4363072,64.81 L75.0863072,61.02 L75.0863072,61.02 C73.8263072,60.74 73.1163072,59.47 73.3963072,58.21 C73.5363072,57.79 73.6763072,57.51 73.9563072,57.23 L84.4963072,47.67 C86.0463072,50.2 87.1763072,53.01 87.8763072,55.96 L87.8763072,55.96 L87.8763072,55.96 Z M80.2863072,42.47 L68.7663072,50.62 C67.7863072,51.18 66.3763072,51.04 65.6763072,50.06 C65.3963072,49.78 65.2563072,49.5 65.2563072,49.08 L64.4163072,34.89 C70.5963072,35.59 76.0763072,38.26 80.2863072,42.47 L80.2863072,42.47 L80.2863072,42.47 L80.2863072,42.47 Z M54.8563072,35.3 L57.6663072,34.74 L56.9663072,48.79 L56.9663072,48.79 C56.9663072,50.05 55.8463072,51.04 54.5763072,51.04 C54.1563072,51.04 53.8763072,50.9 53.4563072,50.76 L41.7963072,42.47 C45.4363072,38.96 49.9363072,36.43 54.8563072,35.3 L54.8563072,35.3 Z M37.7163072,47.67 L48.1163072,56.94 L48.1163072,56.94 C49.0963072,57.78 49.2363072,59.19 48.3963072,60.17 C48.1163072,60.59 47.8363072,60.73 47.2763072,60.87 L33.6463072,64.8 C33.2163072,58.91 34.6163072,52.87 37.7163072,47.67 L37.7163072,47.67 Z M35.3263072,71.42 L49.2363072,69.03 C50.3563072,69.03 51.4863072,69.73 51.6263072,70.86 C51.7663072,71.28 51.7663072,71.84 51.4863072,72.27 L51.4863072,72.27 L46.1463072,85.2 C41.2263072,81.96 37.2863072,77.04 35.3263072,71.42 L35.3263072,71.42 Z M67.2263072,88.84 C65.2563072,89.26 63.2963072,89.54 61.1863072,89.54 C58.2363072,89.54 55.1463072,88.98 52.3363072,88.13 L59.2263072,75.62 C59.9263072,74.78 61.0563072,74.5 62.0363072,75.06 C62.4563072,75.34 62.7363072,75.62 63.1563072,76.04 L63.1563072,76.04 L69.9063072,88.27 C69.0463072,88.42 68.2063072,88.56 67.2263072,88.84 L67.2263072,88.84 L67.2263072,88.84 Z M84.3663072,76.62 C82.2563072,79.99 79.3063072,82.94 75.9363072,85.05 L70.4563072,71.84 C70.1763072,70.72 70.7363072,69.59 71.7163072,69.17 C72.1363072,69.03 72.5563072,68.89 72.9763072,68.89 L87.0263072,71.28 C86.3363072,73.24 85.4863072,75.07 84.3663072,76.62 L84.3663072,76.62 Z" id="Shape" fill="#FFFFFF"></path>
        </g>
    </g>
</svg>

<svg xmlns="http://www.w3.org/2000/svg" xmlns:xlink="http://www.w3.org/1999/xlink" id="Layer_1" x="0" y="0" version="1.1" viewBox="0 0 122.88 118.78" xml:space="preserve" style="enable-background:new 0 0 122.88 118.78"><style type="text/css">.st0{fill:#326de6}.st1{fill:#fff}</style><g><path d="M112.13,26.42c-0.7-2.25-2.39-4.08-4.5-5.2L64.78,0.7C63.65,0.14,62.39,0,61.26,0s-2.39,0-3.51,0.28 L14.89,20.94c-2.11,0.98-3.65,2.81-4.22,5.2L0.14,72.37c-0.42,2.39,0.14,4.78,1.55,6.75l29.65,36.67c1.69,1.69,4.08,2.81,6.46,2.95 h47.21c2.53,0.28,4.92-0.84,6.46-2.95l29.65-36.67c1.41-1.97,1.97-4.36,1.69-6.75L112.13,26.42L112.13,26.42L112.13,26.42z" class="st0"/><path d="M105.59,69.45L105.59,69.45c-0.14,0-0.28,0-0.28-0.14c0-0.14-0.28-0.14-0.56-0.14 c-0.56-0.14-1.12-0.14-1.69-0.14c-0.28,0-0.56,0-0.84-0.14l-0.14,0c-1.55-0.14-3.23-0.42-4.78-0.84c-0.42-0.14-0.84-0.56-0.98-0.98 c0.14,0,0,0,0,0l0,0l-1.12-0.28c0.56-4.08,0.28-8.29-0.56-12.37c-0.98-4.08-2.67-8.01-4.92-11.52l0.84-0.84l0,0v-0.14 c0-0.42,0.14-0.98,0.42-1.26c1.26-1.12,2.53-1.97,3.93-2.81l0,0c0.28-0.14,0.56-0.28,0.84-0.42c0.56-0.28,0.98-0.56,1.55-0.84 c0.14-0.14,0.28-0.14,0.42-0.28s0-0.14,0-0.28l0,0c1.26-0.98,1.55-2.67,0.56-3.93c-0.42-0.56-1.26-0.98-1.97-0.98 c-0.7,0-1.41,0.28-1.97,0.7l0,0l-0.14,0.14c-0.14,0.14-0.28,0.28-0.42,0.28c-0.42,0.42-0.84,0.84-1.12,1.26 c-0.14,0.28-0.42,0.42-0.56,0.56l0,0c-0.98,1.12-2.25,2.25-3.51,3.09c-0.28,0.14-0.56,0.28-0.84,0.28c-0.14,0-0.42,0-0.56-0.14 l-0.14,0l-1.12,0.7c-1.12-1.12-2.39-2.25-3.51-3.37c-5.2-4.08-11.66-6.6-18.27-7.31l-0.14-1.12l0,0v0.14 c-0.42-0.28-0.56-0.7-0.7-1.12c0-1.55,0-3.09,0.28-4.78v-0.14c0-0.28,0.14-0.56,0.14-0.84c0.14-0.56,0.14-1.12,0.28-1.69V16.9l0,0 c0.14-1.41-0.98-2.81-2.39-2.95c-0.84-0.14-1.69,0.28-2.39,0.98c-0.56,0.56-0.84,1.26-0.84,1.97l0,0v0.7 c0,0.56,0.14,1.12,0.28,1.69c0.14,0.28,0.14,0.56,0.14,0.84v0.14c0.28,1.55,0.28,3.09,0.28,4.78c-0.14,0.42-0.28,0.84-0.7,1.12 v0.28l0,0l-0.14,1.12c-1.55,0.14-3.09,0.42-4.78,0.7c-6.6,1.41-12.65,4.92-17.28,9.84l-0.84-0.56l-0.14,0 c-0.14,0-0.28,0.14-0.56,0.14c-0.28,0-0.56-0.14-0.84-0.28c-1.26-0.98-2.53-2.11-3.51-3.23l0,0c-0.14-0.28-0.42-0.42-0.56-0.56 c-0.42-0.42-0.7-0.84-1.12-1.26c-0.14-0.14-0.28-0.14-0.42-0.28c-0.14-0.14-0.14-0.14-0.14-0.14l0,0c-0.56-0.42-1.26-0.7-1.97-0.7 c-0.84,0-1.55,0.28-1.97,0.98c-0.84,1.26-0.56,2.95,0.56,3.93l0,0c0.14,0,0.14,0.14,0.14,0.14s0.28,0.28,0.42,0.28 c0.42,0.28,0.98,0.56,1.55,0.84c0.28,0.14,0.56,0.28,0.84,0.42l0,0c1.41,0.84,2.81,1.69,3.93,2.81c0.28,0.28,0.56,0.84,0.42,1.26 v-0.14l0,0l0.84,0.84c-0.14,0.28-0.28,0.42-0.42,0.7c-4.36,6.89-6.18,15.04-4.92,23.05l-1.12,0.28l0,0c0,0.14-0.14,0.14-0.14,0.14 c-0.14,0.42-0.56,0.7-0.98,0.98c-1.55,0.42-3.09,0.7-4.78,0.84l0,0c-0.28,0-0.56,0-0.84,0.14c-0.56,0-1.12,0.14-1.69,0.14 c-0.14,0-0.28,0.14-0.56,0.14c-0.14,0-0.14,0-0.28,0.14l0,0c-1.55,0.28-2.53,1.69-2.25,3.23l0,0c0.28,1.26,1.55,2.11,2.81,1.97 c0.28,0,0.42,0,0.7-0.14l0,0c0.14,0,0.14,0,0.14-0.14c0-0.14,0.42,0,0.56,0c0.56-0.14,1.12-0.42,1.55-0.56 c0.28-0.14,0.56-0.28,0.84-0.28h0.14c1.55-0.56,2.95-0.98,4.64-1.26h0.14c0.42,0,0.84,0.14,1.12,0.42c0.14,0,0.14,0.14,0.14,0.14 l0,0l1.26-0.14c2.11,6.46,6.04,12.23,11.52,16.44c1.26,0.98,2.39,1.83,3.79,2.53l-0.7,0.98l0,0c0,0.14,0.14,0.14,0.14,0.14 c0.28,0.42,0.28,0.98,0.14,1.41c-0.56,1.41-1.41,2.81-2.25,4.08v0.14c-0.14,0.28-0.28,0.42-0.56,0.7 c-0.28,0.28-0.56,0.84-0.98,1.41c-0.14,0.14-0.14,0.28-0.28,0.42c0,0,0,0.14-0.14,0.14l0,0c-0.7,1.41-0.14,3.09,1.12,3.79 c0.28,0.14,0.7,0.28,0.98,0.28c1.12,0,2.11-0.7,2.67-1.69l0,0c0,0,0-0.14,0.14-0.14c0-0.14,0.14-0.28,0.28-0.42 c0.14-0.56,0.42-0.98,0.56-1.55l0.28-0.84l0,0c0.42-1.55,1.12-2.95,1.83-4.36c0.28-0.42,0.7-0.7,1.12-0.84c0.14,0,0.14,0,0.14-0.14 l0,0l0.56-1.12c3.93,1.55,8.01,2.25,12.22,2.25c2.53,0,5.06-0.28,7.59-0.98c1.55-0.28,3.09-0.84,4.5-1.26l0.56,0.98l0,0 c0.14,0,0.14,0,0.14,0.14c0.42,0.14,0.84,0.42,1.12,0.84c0.7,1.41,1.41,2.81,1.83,4.36v0.14l0.28,0.84 c0.14,0.56,0.28,1.12,0.56,1.55c0.14,0.14,0.14,0.28,0.28,0.42c0,0,0,0.14,0.14,0.14l0,0c0.56,0.98,1.55,1.69,2.67,1.69 c0.42,0,0.7-0.14,1.12-0.28c0.56-0.28,1.12-0.84,1.26-1.55c0.14-0.7,0.14-1.41-0.14-2.11l0,0c0-0.14-0.14-0.14-0.14-0.14 c0-0.14-0.14-0.28-0.28-0.42c-0.28-0.56-0.56-0.98-0.98-1.41c-0.14-0.28-0.28-0.42-0.56-0.7v-0.28c-0.98-1.26-1.69-2.67-2.25-4.08 c-0.14-0.42-0.14-0.98,0.14-1.41c0-0.14,0.14-0.14,0.14-0.14l0,0l-0.42-1.12c7.17-4.36,12.65-11.1,15.18-19.11l1.12,0.14l0,0 c0.14,0,0.14-0.14,0.14-0.14c0.28-0.28,0.7-0.42,1.12-0.42l0.14,0c1.55,0.28,3.09,0.7,4.5,1.26h0.14c0.28,0.14,0.56,0.28,0.84,0.28 c0.56,0.28,0.98,0.56,1.55,0.7c0.14,0,0.28,0.14,0.56,0.14c0.14,0,0.14,0,0.28,0.14l0,0c0.28,0.14,0.42,0.14,0.7,0.14 c1.26,0,2.39-0.84,2.81-1.97C107.98,70.86,106.85,69.73,105.59,69.45L105.59,69.45L105.59,69.45z M64.98,65.09l-3.79,1.83 l-3.79-1.83l-0.98-4.08l2.67-3.37h4.22l2.67,3.37L64.98,65.09L64.98,65.09z M87.88,55.96c0.7,2.95,0.84,5.9,0.56,8.85l-13.35-3.79 l0,0c-1.26-0.28-1.97-1.55-1.69-2.81c0.14-0.42,0.28-0.7,0.56-0.98l10.54-9.56C86.05,50.2,87.18,53.01,87.88,55.96L87.88,55.96 L87.88,55.96z M80.29,42.47l-11.52,8.15c-0.98,0.56-2.39,0.42-3.09-0.56c-0.28-0.28-0.42-0.56-0.42-0.98l-0.84-14.19 C70.6,35.59,76.08,38.26,80.29,42.47L80.29,42.47L80.29,42.47L80.29,42.47z M54.86,35.3l2.81-0.56l-0.7,14.05l0,0 c0,1.26-1.12,2.25-2.39,2.25c-0.42,0-0.7-0.14-1.12-0.28l-11.66-8.29C45.44,38.96,49.94,36.43,54.86,35.3L54.86,35.3z M37.72,47.67 l10.4,9.27l0,0c0.98,0.84,1.12,2.25,0.28,3.23c-0.28,0.42-0.56,0.56-1.12,0.7l-13.63,3.93C33.22,58.91,34.62,52.87,37.72,47.67 L37.72,47.67z M35.33,71.42l13.91-2.39c1.12,0,2.25,0.7,2.39,1.83c0.14,0.42,0.14,0.98-0.14,1.41l0,0l-5.34,12.93 C41.23,81.96,37.29,77.04,35.33,71.42L35.33,71.42z M67.23,88.84c-1.97,0.42-3.93,0.7-6.04,0.7c-2.95,0-6.04-0.56-8.85-1.41 l6.89-12.51c0.7-0.84,1.83-1.12,2.81-0.56c0.42,0.28,0.7,0.56,1.12,0.98l0,0l6.75,12.23C69.05,88.42,68.21,88.56,67.23,88.84 L67.23,88.84L67.23,88.84z M84.37,76.62c-2.11,3.37-5.06,6.32-8.43,8.43l-5.48-13.21c-0.28-1.12,0.28-2.25,1.26-2.67 c0.42-0.14,0.84-0.28,1.26-0.28l14.05,2.39C86.34,73.24,85.49,75.07,84.37,76.62L84.37,76.62z" class="st1"/></g></svg>
